X:5
T:Walzer A (tinwhistle in D) solo
T:wz09341 (Hanny Christen)
%%MIDI program 72   % 111 /74 / 79=whistle
R:waltz
M:3/4
L:1/4
K:A transpose=12
c^Bc | fec | e>dd | d3 | dcd | "_#"gfB | f>ee | e3 | c^Bc | 
fec | e>BB | B3 | Ba"_#"g | fc^d | e>ee |1 e2z :|2 e2e |: c/2B/2 B/2^A/2 B/2c/2 | 
d/2e/2 "_#"gf | fe>c | e2c | cB>E | B2c | BA>"_=C"C | E2c | d/2c/2 B/2^A/2 B/2c/2 | 
d/2e/2"_#"gf | fe>c | e2e | af^d | fe>c | B/2B/2Be |1 Aze :|2 Azz |]
% wz09341 (H 335/TN 37)
% Sep 12, 2016

